img/in.svg

<svg width="40" height="40" viewBox="0 0 40 40" fill="none" xmlns="http://www.w3.org/2000/svg">
<rect opacity="0.1" width="40" height="40" rx="20" fill="#5A7184"/>
<path d="M26.3333 13.3333H14.3021C13.7708 13.3333 13.3333 13.802 13.3333 14.3645V26.3333C13.3333 26.8958 13.7708 27.3333 14.3021 27.3333H26.3333C26.8646 27.3333 27.3333 26.8958 27.3333 26.3333V14.3645C27.3333 13.802 26.8646 13.3333 26.3333 13.3333ZM17.5521 25.3333H15.4896V18.677H17.5521V25.3333ZM16.5208 17.7395C15.8333 17.7395 15.3021 17.2083 15.3021 16.552C15.3021 15.8958 15.8333 15.3333 16.5208 15.3333C17.1771 15.3333 17.7083 15.8958 17.7083 16.552C17.7083 17.2083 17.1771 17.7395 16.5208 17.7395ZM25.3333 25.3333H23.2396V22.0833C23.2396 21.3333 23.2396 20.3333 22.1771 20.3333C21.0833 20.3333 20.9271 21.177 20.9271 22.052V25.3333H18.8646V18.677H20.8333V19.5833H20.8646C21.1458 19.052 21.8333 18.4895 22.8333 18.4895C24.9271 18.4895 25.3333 19.8958 25.3333 21.677V25.3333Z" fill="#5A7184"/>
</svg>

<svg width="40" height="40" fill="none" xmlns="http://www.w3.org/2000/svg"><rect opacity=".1" width="40" height="40" rx="20" fill="#5A7184"/><path d="M26.333 13.333h-12.03c-.532 0-.97.469-.97 1.031v11.97c0 .562.438 1 .97 1h12.03c.532 0 1-.438 1-1v-11.97c0-.562-.468-1.03-1-1.03Zm-8.78 12H15.49v-6.656h2.062v6.656ZM16.52 17.74c-.688 0-1.219-.532-1.219-1.188a1.22 1.22 0 0 1 1.219-1.219c.656 0 1.187.563 1.187 1.219 0 .656-.53 1.188-1.187 1.188Zm8.812 7.593H23.24v-3.25c0-.75 0-1.75-1.063-1.75-1.094 0-1.25.844-1.25 1.719v3.281h-2.062v-6.656h1.968v.906h.032c.28-.531.968-1.093 1.968-1.093 2.094 0 2.5 1.406 2.5 3.187v3.656Z" fill="#5A7184"/></svg>
